X:2900
T:Polska i Am
B:http://www.smus.se/earkiv/fmk/browselarge.php?lang=sw&katalogid=Upprop+19&bildnr=00235
R:Polska
Z:Nils L
M:3/4
L:1/16
K:Am
A2^GA E2E2 A2B2 | c2BA ^GABd c4 | cBcd e2c2 B2A2 | ^GABd c2BA G2E2 |
A2^GA E2E2 A2B2 | c2BA ^GABd c4 | cBcd e2c2 B2A2 | ^GABG !fine!A8 ::
e2c2 A2c2 e2c2 | dcde f2fe d4 | d2B2 ^G2B2 d2B2 | cBcd e2ed c2B2 :|
(:musicend:)
(:music:)
